X:1
T: Graham's Black Bottle
C:Muriel A Johnstone
R:Reel
%Q: 232
K:D
M:4/4
L:1/8
|:A2|d2 D2 GB AG|F2 D2 D2 AB1/2c1/2|d2 A2 ^Gf ed|c2 A2 A3B|
A2 D2 Bd cB|AF dF GB AG|FD AD CG FE|F2 D2 D2 A2|
d2 fe de Bc|d2 F2 F2 AB1/2c1/2|d2 fd ed Bd|c2 A2 A2 Bc|
d2 fe de Bc|dB AF GB AG|FD AA, B,G FE|F2 D2 D2:|
